!! 00000] TT[WS
!!!OTL: Ba cong
!!!ARE: Asia, China, Shanxi Qinyuan
!! Ethnic Group: Han
!! WII, 54
!!!SCT: J0474
!!!YEM: Copyright 1995, estate of Helmut Schaffrath.
**kern
*ICvox
*Ivox
*M2/4
*k[b-]
*F:
{8dd
8ff
8dd
8cc
=1
2g
=2
8dd
8ff
8dd
8a
=3
4cc
8a
8g
=4
4.f
8d
=5
4cc
8dd
8a
=6
8cc
8a
8g
8d
=7
2f}
=8
{8f
8g
8a
8a
=9
8ff
8dd
4cc
=10
8dd
8a
8cc
8cc
=11
8dd
8a
8g
8f
=12
8f
8d
4c
=13
4cc
8cc
8f
=14
8g
8a
8g
8d
=15
2c}
=16
{8dd
8a
8cc
8cc
=17
8dd
8a
8g
8f
=18
8f
8d
4c
=19
4cc
8cc
8f
=20
8g
8a
8g
8d
=21
2c}
==
!!!AGN: Xiaodiao. Qingge, Sichun
!!!ONB: ESAC (Essen Associative Code) Database: CHINA
!!!AMT: simple duple
!!!AIN: vox
!!!EED: Helmut Schaffrath
!!!EEV: 1.0
*-
